apps/web/src/images/integrations/logo-auth0-badge-color.svg

<svg width="600" height="600" fill="none" xmlns="http://www.w3.org/2000/svg"><path d="M459.852 485.376 398.925 300l159.424-114.547H361.201L300.275 0h197.162l60.989 185.438c35.314 107.518-1.112 229.866-98.867 299.907l.293.031Zm-318.939 0L300.336 600l159.516-114.624-159.423-114.547-159.516 114.547Zm-98.558-300C5.079 298.811 48.349 418.95 140.867 485.422v-.046L201.794 300 42.37 185.376l197.117.062L300.275 0H103.004l-60.65 185.376Z" fill="#EB5424"/></svg>

<svg width="600" height="600" viewBox="0 0 600 600" fill="none" xmlns="http://www.w3.org/2000/svg">
<path d="M459.852 485.376L398.925 300L558.349 185.453H361.201L300.275 0H497.437L558.426 185.438C593.74 292.956 557.314 415.304 459.559 485.345L459.852 485.376ZM140.913 485.376L300.336 600L459.852 485.376L300.429 370.829L140.913 485.376ZM42.3548 185.376C5.07884 298.811 48.3487 418.95 140.867 485.422V485.376L201.794 300L42.3703 185.376L239.487 185.438L300.275 0H103.004L42.3548 185.376Z" fill="#EB5424"/>
</svg>
